public/sun.svg

<?xml version="1.0"?>
<svg xmlns="http://www.w3.org/2000/svg" version="1" viewBox="0 0 24 24" enable-background="new 0 0 24 24">
    <path style="text-indent:0;text-align:start;line-height:normal;text-transform:none;block-progression:tb;-inkscape-font-specification:Bitstream Vera Sans" d="M 11.875 0.1875 A 1.0001 1.0001 0 0 0 11 1.1875 L 11 3.1875 A 1.0001 1.0001 0 1 0 13 3.1875 L 13 1.1875 A 1.0001 1.0001 0 0 0 11.875 0.1875 z M 4 3.375 A 1.0001 1.0001 0 0 0 3.5 5.09375 L 4.90625 6.5 A 1.0001 1.0001 0 1 0 6.3125 5.09375 L 4.90625 3.6875 A 1.0001 1.0001 0 0 0 4.1875 3.375 A 1.0001 1.0001 0 0 0 4.09375 3.375 A 1.0001 1.0001 0 0 0 4 3.375 z M 19.6875 3.375 A 1.0001 1.0001 0 0 0 19.09375 3.6875 L 17.6875 5.09375 A 1.0001 1.0001 0 1 0 19.09375 6.5 L 20.5 5.09375 A 1.0001 1.0001 0 0 0 19.78125 3.375 A 1.0001 1.0001 0 0 0 19.6875 3.375 z M 12 5.1875 C 8.1545455 5.1875 5 8.3420455 5 12.1875 C 5 16.032955 8.1545455 19.1875 12 19.1875 C 15.845455 19.1875 19 16.032955 19 12.1875 C 19 8.3420455 15.845455 5.1875 12 5.1875 z M 12 7.1875 C 14.754545 7.1875 17 9.4329545 17 12.1875 C 17 14.942045 14.754545 17.1875 12 17.1875 C 9.2454545 17.1875 7 14.942045 7 12.1875 C 7 9.4329545 9.2454545 7.1875 12 7.1875 z M 0.8125 11.1875 A 1.001098 1.001098 0 0 0 1 13.1875 L 3 13.1875 A 1.0001 1.0001 0 1 0 3 11.1875 L 1 11.1875 A 1.0001 1.0001 0 0 0 0.90625 11.1875 A 1.001098 1.001098 0 0 0 0.8125 11.1875 z M 20.8125 11.1875 A 1.001098 1.001098 0 0 0 21 13.1875 L 23 13.1875 A 1.0001 1.0001 0 1 0 23 11.1875 L 21 11.1875 A 1.0001 1.0001 0 0 0 20.90625 11.1875 A 1.001098 1.001098 0 0 0 20.8125 11.1875 z M 5.46875 17.59375 A 1.0001 1.0001 0 0 0 4.90625 17.90625 L 3.5 19.28125 A 1.0054782 1.0054782 0 1 0 4.90625 20.71875 L 6.3125 19.3125 A 1.0001 1.0001 0 0 0 5.46875 17.59375 z M 18.1875 17.59375 A 1.0001 1.0001 0 0 0 17.6875 19.3125 L 19.09375 20.71875 A 1.0054782 1.0054782 0 1 0 20.5 19.28125 L 19.09375 17.90625 A 1.0001 1.0001 0 0 0 18.28125 17.59375 A 1.0001 1.0001 0 0 0 18.1875 17.59375 z M 11.875 20.1875 A 1.0001 1.0001 0 0 0 11 21.1875 L 11 23.1875 A 1.0001 1.0001 0 1 0 13 23.1875 L 13 21.1875 A 1.0001 1.0001 0 0 0 11.875 20.1875 z"/>
</svg>

<svg id="sun" xmlns="http://www.w3.org/2000/svg" viewBox="0 0 24.11 24.02">
  <path d="M11.88.19a1,1,0,0,0-.88,1v2a1,1,0,0,0,2,0v-2a1,1,0,0,0-1-1ZM4,3.38a1,1,0,0,0-.81,1.16,1,1,0,0,0,.31.55L4.91,6.5a1,1,0,0,0,1.4.15,1,1,0,0,0,.15-1.41,1.06,1.06,0,0,0-.15-.15l-1.4-1.4a1,1,0,0,0-.72-.31H4Zm15.69,0a1,1,0,0,0-.6.31l-1.4,1.4a1,1,0,0,0-.15,1.41,1,1,0,0,0,1.4.15.54.54,0,0,0,.15-.15L20.5,5.09a1,1,0,0,0,0-1.41,1,1,0,0,0-.74-.3ZM12,5.19a7,7,0,1,0,7,7A7,7,0,0,0,12,5.19Zm0,2a5,5,0,1,1-5,5A5,5,0,0,1,12,7.19Zm-11.19,4a1,1,0,0,0-.9,1.09A1,1,0,0,0,1,13.19H3a1,1,0,0,0,0-2H.81Zm20,0a1,1,0,0,0-.9,1.09,1,1,0,0,0,1.09.91h2a1,1,0,0,0,0-2H20.81ZM5.47,17.59a.94.94,0,0,0-.56.32L3.5,19.28a1,1,0,1,0,1.41,1.44l1.4-1.41a1,1,0,0,0-.84-1.72Zm12.72,0a1,1,0,0,0-.81,1.17,1,1,0,0,0,.31.55l1.4,1.41a1,1,0,1,0,1.41-1.44l-1.41-1.37a1,1,0,0,0-.81-.32Zm-6.31,2.6a1,1,0,0,0-.88,1v2a1,1,0,0,0,2,0v-2a1,1,0,0,0-1-1Z" transform="translate(0.1 -0.18)"/>
</svg>
